polaris-icons/icons/new-icons/CashYenMajor.svg

<svg width="20" height="20" viewBox="0 0 20 20" fill="none" xmlns="http://www.w3.org/2000/svg">
<path d="M7.43558 6.50613C7.70834 6.1944 8.18216 6.16282 8.49389 6.43558L10 7.75343L11.5061 6.43558C11.8179 6.16282 12.2917 6.1944 12.5644 6.50613C12.8372 6.81786 12.8056 7.29168 12.4939 7.56444L10.75 9.09034V9.5H12C12.4142 9.5 12.75 9.83579 12.75 10.25C12.75 10.6642 12.4142 11 12 11H10.75V11.5H12C12.4142 11.5 12.75 11.8358 12.75 12.25C12.75 12.6642 12.4142 13 12 13H10.75V13.5C10.75 13.9142 10.4142 14.25 10 14.25C9.5858 14.25 9.25001 13.9142 9.25001 13.5V13H8C7.58579 13 7.25 12.6642 7.25 12.25C7.25 11.8358 7.58579 11.5 8 11.5H9.25001V11H8C7.58579 11 7.25 10.6642 7.25 10.25C7.25 9.83579 7.58579 9.5 8 9.5H9.25001V9.09034L7.50613 7.56444C7.1944 7.29168 7.16282 6.81786 7.43558 6.50613Z" fill="#4A4A4A"/>
<path fill-rule="evenodd" clip-rule="evenodd" d="M10 3C6.13401 3 3 6.13401 3 10C3 13.866 6.13401 17 10 17C13.866 17 17 13.866 17 10C17 6.13401 13.866 3 10 3ZM4.5 10C4.5 6.96243 6.96243 4.5 10 4.5C13.0376 4.5 15.5 6.96243 15.5 10C15.5 13.0376 13.0376 15.5 10 15.5C6.96243 15.5 4.5 13.0376 4.5 10Z" fill="#4A4A4A"/>
</svg>

<svg viewBox="0 0 20 20" xmlns="http://www.w3.org/2000/svg"><path d="M7.436 6.506a.75.75 0 0 1 1.058-.07l1.506 1.317 1.506-1.317a.75.75 0 0 1 .988 1.128l-1.744 1.526v.41h1.25a.75.75 0 0 1 0 1.5h-1.25v.5h1.25a.75.75 0 0 1 0 1.5h-1.25v.5a.75.75 0 0 1-1.5 0v-.5h-1.25a.75.75 0 0 1 0-1.5h1.25v-.5h-1.25a.75.75 0 0 1 0-1.5h1.25v-.41l-1.744-1.526a.75.75 0 0 1-.07-1.058Z" fill="#5C5F62"/><path fill-rule="evenodd" d="M10 3a7 7 0 1 0 0 14 7 7 0 0 0 0-14Zm-5.5 7a5.5 5.5 0 1 1 11 0 5.5 5.5 0 0 1-11 0Z" fill="#5C5F62"/></svg>
